;FLAVOR:Marlin
;TIME:2012
;Filament used: 1.7514m
;Layer height: 0.2
;MINX:102.104
;MINY:102.102
;MINZ:0.2
;MAXX:132.9
;MAXY:132.898
;MAXZ:25.4
;TARGET_MACHINE.NAME:Creality Ender-3
;Generated with Cura_SteamEngine 5.9.0
M140 S82
M105
M190 S82
M104 S255
M105
M109 S255
M82 ;absolute extrusion mode
; Ender 3 Custom Start G-code
G92 E0 ; Reset Extruder
G28 ; Home all axes
G1 Z2.0 F3000 ; Move Z Axis up little to prevent scratching of Heat Bed
G1 X0.1 Y20 Z0.3 F5000.0 ; Move to start position
G1 X0.1 Y200.0 Z0.3 F1500.0 E15 ; Draw the first line
G1 X0.4 Y200.0 Z0.3 F5000.0 ; Move to side a little
G1 X0.4 Y20 Z0.3 F1500.0 E30 ; Draw the second line
G92 E0 ; Reset Extruder
G1 Z2.0 F3000 ; Move Z Axis up little to prevent scratching of Heat Bed
G1 X5 Y20 Z0.3 F5000.0 ; Move over to prevent blob squish
G92 E0
G92 E0
G1 F2700 E-5
;LAYER_COUNT:127
;LAYER:0
M107
G0 F6000 X119.827 Y132.722 Z0.2
;TYPE:SKIRT
G1 F2700 E0
G1 F900 X119.065 Y132.819 E0.03832
G1 X118.331 Y132.876 E0.07505
G1 X117.915 Y132.894 E0.09583
G1 X117.266 Y132.898 E0.12821
G1 X116.369 Y132.857 E0.173
G1 X115.605 Y132.783 E0.2113
G1 X114.848 Y132.671 E0.24948
G1 X114.136 Y132.53 E0.28569
G1 X113.727 Y132.431 E0.30668
G1 X112.996 Y132.226 E0.34456
G1 X112.604 Y132.1 E0.3651
G1 X111.906 Y131.848 E0.40213
G1 X111.517 Y131.689 E0.42309
G1 X110.849 Y131.388 E0.45964
G1 X110.472 Y131.203 E0.4806
G1 X109.846 Y130.864 E0.51611
G1 X109.138 Y130.432 E0.55749
G1 X108.522 Y130.012 E0.59469
G1 X107.887 Y129.532 E0.6344
G1 X107.366 Y129.097 E0.66826
G1 X106.776 Y128.554 E0.70827
G1 X106.215 Y127.98 E0.74831
G1 X105.949 Y127.685 E0.76813
G1 X105.438 Y127.076 E0.80779
G1 X105.029 Y126.535 E0.84162
G1 X104.559 Y125.848 E0.88315
G1 X104.173 Y125.216 E0.9201
G1 X103.956 Y124.828 E0.94228
G1 X103.62 Y124.17 E0.97914
G1 X103.291 Y123.438 E1.01918
G1 X103.012 Y122.72 E1.05761
G1 X102.781 Y122.028 E1.094
G1 X102.659 Y121.619 E1.1153
G1 X102.499 Y120.989 E1.14773
G1 X102.345 Y120.239 E1.18592
G1 X102.212 Y119.346 E1.23097
G1 X102.14 Y118.586 E1.26905
G1 X102.104 Y117.834 E1.30661
G1 X102.104 Y117.075 E1.34448
G1 X102.117 Y116.746 E1.36091
G1 X102.182 Y115.928 E1.40185
G1 X102.23 Y115.514 E1.42264
G1 X102.346 Y114.751 E1.46114
G1 X102.485 Y114.078 E1.49543
G1 X102.695 Y113.259 E1.53761
G1 X102.911 Y112.568 E1.57373
G1 X103.184 Y111.824 E1.61327
G1 X103.348 Y111.425 E1.63479
G1 X103.631 Y110.807 E1.6687
G1 X104.008 Y110.076 E1.70973
G1 X104.211 Y109.719 E1.73022
G1 X104.568 Y109.136 E1.76433
G1 X105.056 Y108.427 E1.80727
G1 X105.44 Y107.922 E1.83892
G1 X106.027 Y107.228 E1.88427
G1 X106.541 Y106.68 E1.92175
G1 X106.832 Y106.394 E1.94211
G1 X107.406 Y105.868 E1.98095
G1 X107.953 Y105.416 E2.01635
G1 X108.615 Y104.921 E2.05759
G1 X109.209 Y104.522 E2.09329
G1 X109.893 Y104.112 E2.13308
G1 X110.598 Y103.734 E2.17299
G1 X111.242 Y103.429 E2.20854
G1 X111.646 Y103.255 E2.23048
G1 X112.308 Y103 E2.26588
G1 X113.014 Y102.767 E2.30297
G1 X113.818 Y102.546 E2.34457
G1 X114.601 Y102.374 E2.38456
G1 X115.243 Y102.265 E2.41705
G1 X116.126 Y102.161 E2.46141
G1 X116.87 Y102.112 E2.49861
G1 X117.282 Y102.102 E2.51917
G1 X117.996 Y102.109 E2.55479
G1 X118.44 Y102.129 E2.57696
G1 X119.206 Y102.195 E2.61532
G1 X119.91 Y102.29 E2.65076
G1 X120.689 Y102.434 E2.69029
G1 X121.105 Y102.528 E2.71156
G1 X121.814 Y102.717 E2.74817
G1 X122.213 Y102.84 E2.769
G1 X122.932 Y103.09 E2.80698
G1 X123.658 Y103.384 E2.84606
G1 X124.275 Y103.669 E2.87996
G1 X125.009 Y104.054 E2.92131
G1 X125.374 Y104.265 E2.94235
G1 X125.996 Y104.655 E2.97898
G1 X126.348 Y104.896 E3.00026
G1 X126.957 Y105.347 E3.03807
G1 X127.513 Y105.798 E3.07378
G1 X128.111 Y106.339 E3.11401
G1 X128.649 Y106.877 E3.15197
G1 X128.935 Y107.186 E3.17298
G1 X129.417 Y107.745 E3.2098
G1 X129.665 Y108.055 E3.22961
G1 X130.098 Y108.641 E3.26596
G1 X130.532 Y109.292 E3.305
G1 X130.75 Y109.651 E3.32595
G1 X131.106 Y110.287 E3.36231
G1 X131.476 Y111.033 E3.40386
G1 X131.78 Y111.732 E3.44189
G1 X132.012 Y112.34 E3.47435
G1 X132.287 Y113.196 E3.51921
G1 X132.469 Y113.881 E3.55457
G1 X132.631 Y114.634 E3.59299
G1 X132.758 Y115.419 E3.63267
G1 X132.811 Y115.842 E3.65394
G1 X132.871 Y116.575 E3.69063
G1 X132.891 Y116.986 E3.71116
G1 X132.9 Y117.699 E3.74673
G1 X132.866 Y118.532 E3.78833
G1 X132.809 Y119.18 E3.82078
G1 X132.689 Y120.05 E3.86459
G1 X132.563 Y120.714 E3.89831
G1 X132.36 Y121.544 E3.94094
G1 X132.135 Y122.29 E3.97982
G1 X131.885 Y123.001 E4.01742
G1 X131.619 Y123.653 E4.05255
G1 X131.417 Y124.092 E4.07666
G1 X131.119 Y124.689 E4.10995
G1 X130.686 Y125.455 E4.15385
G1 X130.292 Y126.073 E4.19041
G1 X130.053 Y126.42 E4.21143
G1 X129.609 Y127.015 E4.24847
G1 X129.122 Y127.605 E4.28664
G1 X128.855 Y127.904 E4.30664
G1 X128.335 Y128.443 E4.344
G1 X128.03 Y128.74 E4.36524
G1 X127.544 Y129.176 E4.39781
G1 X126.902 Y129.697 E4.43906
G1 X126.292 Y130.144 E4.47679
G1 X125.902 Y130.406 E4.50023
G1 X125.298 Y130.779 E4.53565
G1 X124.61 Y131.159 E4.57486
G1 X124.224 Y131.354 E4.59644
G1 X123.534 Y131.668 E4.63426
G1 X122.871 Y131.934 E4.6699
G1 X122.113 Y132.193 E4.70986
G1 X121.712 Y132.31 E4.7307
G1 X120.991 Y132.498 E4.76788
G1 X120.587 Y132.585 E4.78849
G1 X119.827 Y132.722 E4.82702
G0 F6000 X119.751 Y132.127
G1 F900 X119.018 Y132.221 E4.86389
G1 X118.305 Y132.277 E4.89957
G1 X117.911 Y132.294 E4.91925
G1 X117.262 Y132.298 E4.95163
G1 X116.427 Y132.26 E4.99333
G1 X115.692 Y132.189 E5.03017
G1 X114.965 Y132.082 E5.06683
G1 X114.253 Y131.941 E5.10304
G1 X113.889 Y131.853 E5.12172
G1 X113.178 Y131.654 E5.15856
G1 X112.808 Y131.536 E5.17793
G1 X112.132 Y131.292 E5.21379
G1 X111.763 Y131.142 E5.23366
G1 X111.114 Y130.85 E5.26917
G1 X110.758 Y130.675 E5.28896
G1 X110.132 Y130.336 E5.32447
G1 X109.475 Y129.936 E5.36285
G1 X108.884 Y129.534 E5.39851
G1 X108.272 Y129.071 E5.43679
G1 X107.751 Y128.636 E5.47066
G1 X107.205 Y128.134 E5.50766
G1 X106.661 Y127.578 E5.54647
G1 X106.395 Y127.283 E5.56628
G1 X105.917 Y126.714 E5.60336
G1 X105.508 Y126.173 E5.6372
G1 X105.071 Y125.535 E5.67578
G1 X104.685 Y124.903 E5.71272
G1 X104.49 Y124.555 E5.73262
G1 X104.167 Y123.924 E5.76799
G1 X103.85 Y123.22 E5.80651
G1 X103.581 Y122.53 E5.84346
G1 X103.356 Y121.857 E5.87886
G1 X103.241 Y121.471 E5.89895
G1 X103.081 Y120.841 E5.93138
G1 X102.933 Y120.119 E5.96815
G1 X102.809 Y119.289 E6.01002
G1 X102.739 Y118.557 E6.04671
G1 X102.704 Y117.834 E6.08282
G1 X102.704 Y117.099 E6.11949
G1 X102.717 Y116.77 E6.13592
G1 X102.778 Y115.996 E6.17465
G1 X102.823 Y115.604 E6.19434
G1 X102.934 Y114.872 E6.23127
G1 X103.073 Y114.199 E6.26556
G1 X103.268 Y113.438 E6.30475
G1 X103.484 Y112.747 E6.34087
G1 X103.739 Y112.052 E6.3778
G1 X103.894 Y111.675 E6.39814
G1 X104.177 Y111.057 E6.43205
G1 X104.53 Y110.372 E6.4705
G1 X104.723 Y110.032 E6.49
G1 X105.08 Y109.449 E6.52411
G1 X105.534 Y108.79 E6.56403
G1 X105.918 Y108.285 E6.59568
G1 X106.465 Y107.638 E6.63795
G1 X106.961 Y107.108 E6.67417
G1 X107.238 Y106.836 E6.69354
G1 X107.788 Y106.331 E6.73079
G1 X108.335 Y105.879 E6.76619
G1 X108.95 Y105.419 E6.8045
G1 X109.517 Y105.037 E6.83861
G1 X110.201 Y104.627 E6.8784
G1 X110.854 Y104.276 E6.91539
G1 X111.48 Y103.98 E6.94993
G1 X111.862 Y103.815 E6.97069
G1 X112.497 Y103.57 E7.00465
G1 X113.173 Y103.346 E7.04018
G1 X113.977 Y103.125 E7.08178
G1 X114.701 Y102.966 E7.11876
G1 X115.343 Y102.857 E7.15125
G1 X116.166 Y102.76 E7.19259
G1 X116.885 Y102.712 E7.22854
G1 X117.277 Y102.702 E7.2481
G1 X117.969 Y102.708 E7.28263
G1 X118.389 Y102.727 E7.3036
G1 X119.126 Y102.79 E7.34051
G1 X119.83 Y102.885 E7.37595
G1 X120.558 Y103.02 E7.41289
G1 X120.951 Y103.108 E7.43298
G1 X121.638 Y103.291 E7.46845
G1 X122.017 Y103.407 E7.48822
G1 X122.707 Y103.646 E7.52466
G1 X123.406 Y103.929 E7.56228
G1 X124.023 Y104.214 E7.59619
G1 X124.709 Y104.574 E7.63484
G1 X125.056 Y104.774 E7.65482
G1 X125.658 Y105.151 E7.69026
G1 X125.991 Y105.378 E7.71036
G1 X126.579 Y105.813 E7.74685
G1 X127.11 Y106.243 E7.78094
G1 X127.708 Y106.784 E7.82117
G1 X128.209 Y107.285 E7.85652
G1 X128.481 Y107.578 E7.87647
G1 X128.948 Y108.119 E7.91212
G1 X129.182 Y108.412 E7.93083
G1 X129.615 Y108.998 E7.96718
G1 X130.019 Y109.603 E8.00348
G1 X130.226 Y109.944 E8.02338
G1 X130.582 Y110.58 E8.05974
G1 X130.926 Y111.273 E8.09834
G1 X131.219 Y111.946 E8.13496
G1 X131.451 Y112.554 E8.16743
G1 X131.707 Y113.351 E8.20919
G1 X131.882 Y114.007 E8.24306
G1 X132.044 Y114.76 E8.28149
G1 X132.163 Y115.494 E8.31859
G1 X132.213 Y115.892 E8.3386
G1 X132.272 Y116.604 E8.37424
G1 X132.291 Y116.994 E8.39372
G1 X132.3 Y117.707 E8.4293
G1 X132.268 Y118.479 E8.46784
G1 X132.211 Y119.127 E8.5003
G1 X132.099 Y119.939 E8.54119
G1 X131.98 Y120.571 E8.57328
G1 X131.777 Y121.401 E8.61591
G1 X131.569 Y122.091 E8.65186
G1 X131.329 Y122.774 E8.68798
G1 X131.063 Y123.426 E8.72311
G1 X130.88 Y123.824 E8.74497
G1 X130.582 Y124.421 E8.77825
G1 X130.18 Y125.133 E8.81905
G1 X129.798 Y125.733 E8.85453
G1 X129.572 Y126.061 E8.8744
G1 X129.128 Y126.656 E8.91144
G1 X128.674 Y127.205 E8.94699
G1 X128.407 Y127.504 E8.96698
G1 X127.917 Y128.013 E9.00223
G1 X127.629 Y128.293 E9.02227
G1 X127.143 Y128.729 E9.05485
G1 X126.547 Y129.213 E9.09315
G1 X125.937 Y129.66 E9.13088
G1 X125.587 Y129.895 E9.15191
G1 X124.983 Y130.268 E9.18733
G1 X124.339 Y130.624 E9.22404
G1 X123.975 Y130.808 E9.24439
G1 X123.31 Y131.111 E9.28085
G1 X122.676 Y131.366 E9.31494
G1 X121.944 Y131.617 E9.35355
G1 X121.56 Y131.73 E9.37352
G1 X120.864 Y131.912 E9.40941
G1 X120.48 Y131.995 E9.42901
G1 X119.751 Y132.127 E9.46597
G0 F6000 X119.674 Y131.532
G1 F900 X118.97 Y131.623 E9.50139
G1 X118.279 Y131.678 E9.53597
G1 X117.907 Y131.694 E9.55455
G1 X117.258 Y131.698 E9.58692
G1 X116.485 Y131.663 E9.62553
G1 X115.779 Y131.595 E9.66091
G1 X115.081 Y131.493 E9.69611
G1 X114.393 Y131.357 E9.7311
G1 X114.05 Y131.275 E9.74869
G1 X113.361 Y131.083 E9.78438
G1 X113.011 Y130.971 E9.80271
G1 X112.357 Y130.736 E9.83738
G1 X112.009 Y130.595 E9.85611
G1 X111.379 Y130.312 E9.89057
G1 X111.044 Y130.147 E9.9092
G1 X110.418 Y129.808 E9.94472
G1 X109.812 Y129.439 E9.98011
G1 X109.246 Y129.055 E10.01424
G1 X108.657 Y128.61 E10.05107
G1 X108.136 Y128.175 E10.08493
G1 X107.611 Y127.692 E10.12052
G1 X107.106 Y127.175 E10.15657
G1 X106.854 Y126.897 E10.17529
G1 X106.396 Y126.352 E10.21081
G1 X105.987 Y125.811 E10.24465
G1 X105.566 Y125.196 E10.28183
G1 X105.208 Y124.609 E10.31613
G1 X105.024 Y124.281 E10.33489
G1 X104.714 Y123.677 E10.36877
G1 X104.409 Y123.001 E10.40576
G1 X104.15 Y122.339 E10.44123
G1 X103.931 Y121.686 E10.47559
G1 X103.823 Y121.323 E10.49449
G1 X103.663 Y120.693 E10.52691
G1 X103.521 Y119.999 E10.56226
G1 X103.406 Y119.231 E10.601
G1 X103.338 Y118.528 E10.63624
G1 X103.304 Y117.834 E10.6709
G1 X103.304 Y117.123 E10.70637
G1 X103.317 Y116.794 E10.7228
G1 X103.374 Y116.064 E10.75933
G1 X103.416 Y115.694 E10.77791
G1 X103.522 Y114.993 E10.81328
G1 X103.661 Y114.32 E10.84756
G1 X103.841 Y113.617 E10.88377
G1 X104.057 Y112.926 E10.91989
G1 X104.294 Y112.28 E10.95422
G1 X104.44 Y111.925 E10.97337
G1 X104.723 Y111.307 E11.00728
G1 X105.052 Y110.668 E11.04314
G1 X105.235 Y110.345 E11.06166
G1 X105.575 Y109.789 E11.09417
G1 X106.012 Y109.153 E11.13267
G1 X106.396 Y108.648 E11.16432
G1 X106.904 Y108.047 E11.20358
G1 X107.381 Y107.536 E11.23846
G1 X107.644 Y107.278 E11.25684
G1 X108.17 Y106.794 E11.2925
G1 X108.717 Y106.342 E11.3279
G1 X109.285 Y105.917 E11.36329
G1 X109.852 Y105.535 E11.3974
G1 X110.485 Y105.155 E11.43423
G1 X111.111 Y104.818 E11.4697
G1 X111.717 Y104.531 E11.50316
G1 X112.079 Y104.375 E11.52282
G1 X112.686 Y104.14 E11.55529
G1 X113.362 Y103.916 E11.59082
G1 X114.106 Y103.711 E11.62933
G1 X114.801 Y103.558 E11.66483
G1 X115.443 Y103.449 E11.69732
G1 X116.206 Y103.359 E11.73565
G1 X116.901 Y103.312 E11.7704
G1 X117.272 Y103.302 E11.78892
G1 X117.964 Y103.308 E11.82344
G1 X118.338 Y103.325 E11.84212
G1 X119.046 Y103.385 E11.87757
G1 X119.75 Y103.48 E11.91301
G1 X120.427 Y103.605 E11.94736
G1 X120.797 Y103.688 E11.96627
G1 X121.463 Y103.865 E12.00065
G1 X121.821 Y103.974 E12.01932
G1 X122.482 Y104.202 E12.05421
G1 X123.154 Y104.474 E12.09038
G1 X123.771 Y104.759 E12.12429
G1 X124.41 Y105.094 E12.16028
G1 X124.737 Y105.282 E12.1791
G1 X125.321 Y105.648 E12.21348
G1 X125.635 Y105.861 E12.23241
G1 X126.201 Y106.279 E12.26752
G1 X126.732 Y106.709 E12.30161
G1 X127.284 Y107.208 E12.33873
G1 X127.77 Y107.694 E12.37302
G1 X128.027 Y107.97 E12.39183
G1 X128.479 Y108.494 E12.42636
G1 X128.699 Y108.769 E12.44393
G1 X129.132 Y109.355 E12.48028
G1 X129.506 Y109.915 E12.51388
G1 X129.702 Y110.237 E12.53268
G1 X130.058 Y110.873 E12.56905
G1 X130.376 Y111.513 E12.6047
G1 X130.658 Y112.16 E12.63991
G1 X130.89 Y112.768 E12.67238
G1 X131.127 Y113.506 E12.71105
G1 X131.295 Y114.133 E12.74343
G1 X131.457 Y114.886 E12.78186
G1 X131.568 Y115.569 E12.81638
G1 X131.615 Y115.942 E12.83514
G1 X131.673 Y116.633 E12.86973
G1 X131.691 Y117.002 E12.88817
G1 X131.7 Y117.683 E12.92214
G1 X131.67 Y118.426 E12.95924
G1 X131.613 Y119.074 E12.9917
G1 X131.509 Y119.828 E13.02967
G1 X131.39 Y120.46 E13.06175
G1 X131.202 Y121.229 E13.10125
G1 X131.003 Y121.892 E13.13578
G1 X130.773 Y122.547 E13.17042
G1 X130.507 Y123.199 E13.20555
G1 X130.343 Y123.556 E13.22515
G1 X130.045 Y124.153 E13.25844
G1 X129.673 Y124.811 E13.29615
G1 X129.303 Y125.394 E13.3306
G1 X129.091 Y125.703 E13.34929
G1 X128.666 Y126.274 E13.38481
G1 X128.226 Y126.806 E13.41925
G1 X127.975 Y127.088 E13.43808
G1 X127.498 Y127.583 E13.47238
G1 X127.228 Y127.846 E13.49118
G1 X126.742 Y128.282 E13.52376
G1 X126.192 Y128.729 E13.55912
G1 X125.582 Y129.176 E13.59685
G1 X125.272 Y129.384 E13.61547
G1 X124.668 Y129.757 E13.65089
G1 X124.068 Y130.089 E13.6851
G1 X123.726 Y130.262 E13.70422
G1 X123.086 Y130.554 E13.73932
G1 X122.452 Y130.809 E13.77341
G1 X121.774 Y131.042 E13.80918
G1 X121.408 Y131.15 E13.82822
G1 X120.737 Y131.326 E13.86282
G1 X120.373 Y131.405 E13.88141
G1 X119.674 Y131.532 E13.91685
G0 F6000 X119.517 Y130.342
G1 F900 X118.873 Y130.427 E13.94926
G1 X118.227 Y130.48 E13.9816
G1 X117.899 Y130.494 E13.99798
G1 X117.25 Y130.498 E14.03035
G1 X116.599 Y130.469 E14.06287
G1 X115.951 Y130.407 E14.09534
G1 X115.313 Y130.315 E14.1275
G1 X114.671 Y130.189 E14.16014
G1 X114.35 Y130.113 E14.1766
G1 X113.727 Y129.941 E14.20884
G1 X113.415 Y129.841 E14.22519
G1 X112.806 Y129.623 E14.25746
G1 X112.5 Y129.5 E14.27391
G1 X111.909 Y129.236 E14.30621
G1 X111.614 Y129.091 E14.32261
G1 X111.041 Y128.782 E14.35509
G1 X110.485 Y128.445 E14.38752
G1 X109.944 Y128.079 E14.42011
G1 X109.425 Y127.688 E14.45253
G1 X108.926 Y127.272 E14.48494
G1 X108.446 Y126.83 E14.51749
G1 X107.994 Y126.368 E14.54974
G1 X107.772 Y126.124 E14.5662
G1 X107.352 Y125.626 E14.5987
G1 X106.96 Y125.109 E14.63107
G1 X106.59 Y124.571 E14.66364
G1 X106.254 Y124.02 E14.69584
G1 X106.092 Y123.733 E14.71228
G1 X105.795 Y123.155 E14.7447
G1 X105.526 Y122.562 E14.77719
G1 X105.287 Y121.955 E14.80974
G1 X105.081 Y121.345 E14.84186
G1 X104.987 Y121.027 E14.8584
G1 X104.827 Y120.397 E14.89083
G1 X104.697 Y119.759 E14.92331
G1 X104.6 Y119.114 E14.95585
G1 X104.536 Y118.468 E14.98824
G1 X104.504 Y117.834 E15.01991
G1 X104.504 Y117.171 E15.05299
G1 X104.517 Y116.842 E15.06942
G1 X104.566 Y116.197 E15.10169
G1 X104.602 Y115.872 E15.118
G1 X104.698 Y115.233 E15.15024
G1 X104.83 Y114.589 E15.18304
G1 X104.987 Y113.974 E15.2147
G1 X105.185 Y113.337 E15.24798
G1 X105.404 Y112.736 E15.2799
G1 X105.532 Y112.424 E15.29672
G1 X105.802 Y111.832 E15.32918
G1 X106.098 Y111.257 E15.36145
G1 X106.259 Y110.971 E15.37782
G1 X106.599 Y110.415 E15.41033
G1 X106.968 Y109.879 E15.4428
G1 X107.352 Y109.374 E15.47445
G1 X107.782 Y108.865 E15.50769
G1 X108.224 Y108.391 E15.54003
G1 X108.458 Y108.16 E15.55643
G1 X108.936 Y107.718 E15.58891
G1 X109.437 Y107.302 E15.6214
G1 X109.956 Y106.912 E15.65379
G1 X110.497 Y106.547 E15.68635
G1 X111.054 Y106.211 E15.7188
G1 X111.627 Y105.902 E15.75128
G1 X112.212 Y105.624 E15.7836
G1 X112.513 Y105.495 E15.79993
G1 X113.12 Y105.26 E15.83241
G1 X113.738 Y105.056 E15.86488
G1 X114.366 Y104.883 E15.89737
G1 X115.001 Y104.742 E15.92983
G1 X115.643 Y104.633 E15.96231
G1 X116.289 Y104.557 E15.99476
G1 X116.936 Y104.512 E16.02712
